X:1
T:Feuilles d'album
T:Rose d'Amour
T:À Madame MARIE TRÉLAT
T:Rose d'Amour
T:Georges Bizet
T:Charles Hubert Millevoye
T:Feuilles d'Album, No.5
T:OpenScore (CC0)
T:OpenScore (CC0)
T:OpenScore (CC0)
T:OpenScore (CC0)
T:OpenScore (CC0)
T:OpenScore (CC0)
C:Georges Bizet
Z:Charles Hubert Millevoye
Z:OpenScore (CC0)
%%score 1 { ( 2 5 ) | ( 3 4 ) }
L:1/8
Q:1/4=50
M:4/4
K:F
V:1 treble nm="Voice"
V:2 bass nm="Piano"
V:5 bass 
V:3 bass 
V:4 bass 
V:1
"^Andante molto." z8 | z8 | z8 | z8 |!p! D2 D3/2 D/ ^C C E3/2 E/ | D4 ^C z!<(! E2!<)! | %6
w: ||||Ro- se d'a- mour, nou- velle é-|clo- se, Lan-|
 G2!>(! G3/2 G/ F2 E3/2!>)! E/ | D2- D z z4 | F- F/ z/ F3/2 F/ F2 E3/2 F/ | G4 A z!<(! A2!<)! | %10
w: guit dans le  creux du val-|\- lon, _|Nulle, * de mé- moi- re de|ro- se, N'a|
 c3/2 A/"^dim." E2- E E{E=G} F3/2 E/ |!pp! E4- E z z A | _B3/2 ^C/ C2- C/ z/ E F3/2 G/ | %13
w: tant souf- fert _ de l'A- qui-|lon! _ E-|poux sau- va- ge, il la tour-|
 (A3 F) D z A3/2 A/ |!<(! G3 G F2 G3/2!<)! A/ | E2- E z z2!p! !>!A2- | %16
w: \- men- * te; Son a-|mour res- semble au cour-|roux; _ Et|
 A ^F D-D/ z/!<(! ^C ^c =B3/2 A/ | %17
w: _ Zé- phyr, * dont elle est l'a-|
 (A2!<)! d2-)!p! (3:2:4(d^c) =B/ z/[Q:1/4=48]"^T""^rall." (3(AG3/2) =B,/ | %18
w: man- * * * te, Lui * pro-|
!<(! (D2[Q:1/4=45]"^T"({ED)} ^C/ D/) A,/!<)! ^F/[Q:1/4=40]"^T"!>(! F3!>)! E | %19
w: met _ _ des bai- sers plus|
[Q:1/4=50]"^a tempo" D2- D z z4 | z8 | z8 | D2 D3/2 D/ ^C C E3/2 E/ | D4 ^C2- C z | %24
w: doux. _|||Ro- se d'a- mour, dé- co- lo-|ré- e. _|
!>(! G2 G3/2 G/ F F E3/2!>)! E/ |!pp! D2- D z z4 |!p! F3/2 F/ F2 F F E3/2 F/ | G4 A z!<(! A2!<)! | %28
w: Va suc- com- ber à ses dou-|leurs; _|Sur sa chu- te pré- ma- tu-|ré- e, L'au-|
 c3/2!mp! A/"^dim." E2- E E{E=G} F3/2 E/ |!pp! E4- E z z A | (_BB/) z/ ^C2 C E F G | %31
w: \- rore en vain _ ré- pand des|pleurs; _ De-|\- main, _ (tris- te mé- ta- mor-|
 (A3 F) D-D/ z/ A3/2 A/ |!<(! G3 G F2 G3/2!<)! A/ |!f! E4- E z!p! A2 | %34
w: pho- * se!) _ Le pre-|\- mier ray- on du so-|leil, _ De|
 A2 G3/2"^crescendo" A/ B2 c3/2 d/ | c4-"^rall."[Q:1/4=48]"^T" (3(cBA)[Q:1/4=45]"^T" (3(GFE) | %36
w: cel- le qui fut u- ne|ro- * * se, En _ _|
 F-F/ z/[Q:1/4=40]"^T" E3/2 D/"^dim." F2{EF} E3/2 D/ |[Q:1/4=50]"^a tempo" D2- D z z4 | z8 | %39
w: vain _ at- ten- dra le ré-|veil! _||
!p! F2 C3/2 D/ C/ z/!<(! F A3/2!<)! c/ |!>(! (c3!>)! B) A2 z2 | F3/2 D/!<(! B,2 D F B3/2 d/!<)! | %42
w: Ro- se d'a- mour! ta des- ti-|né- * e|De l'a- mour ob- tint un sou-|
 c4- c2 z2 |!p! F2 (3C D C!<(! F2 A3/2!<)! c/ |!>(! (c3 B)!>)! A2 z A | %45
w: \- pir; _|Un mys- té- ri- eux hy- mé-|né- * e U-|
"^crescendo molto" A2 ^c3/2 A/ e2 E3/2 =B/ |!f! A4 z2!pp! z A | %47
w: \- nit et la  fleur et Zé-|phyr: Zé-|
"^Animez" _B[Q:1/4=55]"^T" z/ ^C/ C2- C E F3/2 G/ | (A3 F) D2 z[Q:1/4=58]"^T" A | %49
w: phyr, à l'heu- * re‿où  tout re-|\- po- * se, Trom-|
!<(! ^G2[Q:1/4=60]"^T" =G3/2 G/ F2 G3/2 A/!<)! | %50
w: pa le ja- loux a- qui-|
[Q:1/4=50]"^revenez au 1er mouvt."[Q:1/4=50]"_revenez au 1er mouvt."!>(! E4-!>)! E z!p! A3/2 A/ | %51
w: \- lon; _ Au plai-|
 (A2 ^FD)!<(! ^C ^c =B3/2 A/!<)! | %52
w: sir _ _ il ren- dit la|
!<(! !turn!A2!<)! d2 (3z[Q:1/4=48]"^T""^rallentando" ^c!<(! =B (3(AG) =B,!<)! | %53
w: ro- se, Et son or- * ne-|
[Q:1/4=45]"^T" (D2"^dim." (6:4:6E/D/^C/D/A,/^F/)!pp! F3 E | %54
w: \- ment _ _ _ _ _ _  au val-|
[Q:1/4=50]"^a tempo" D2- D z z2!pp! A3/2 =B/ | (A2 d2) E A A3/2 =B/ | %56
w: lon. _ Au plai-|sir! _ il ren- dit la|
 (A>^F) A2- A z!<(! A3/2 A/!<)! |!mf!"^dim." d4-[Q:1/4=45]"^Adagio" d!p! !fermata!z D3/2!<(! E/ | %58
w: ro- * se _ Au plai-|sir! _ et son|
 ^F3/2!<)! =G/!>(! A4 =B3/2 ^c/!>)! |[Q:1/4=50]"_1° tempo.""_dim." d4- d2 z2 | %60
w: or- ne- ment au val-|\- lon. _|
[Q:1/4=48]"^T" z8[Q:1/4=47]"^T"[Q:1/4=46]"^T"[Q:1/4=45]"^T" |[Q:1/4=44]"^T" z8[Q:1/4=42]"^T" |] %62
w: ||
V:2
!p! F,/D/A,/F,/ ^C/A,/E,/C/ G,/E/A,/G,/ D/A,/F,/D/ | %1
 E,/^C/A,/E,/ =B,/A,/D,/B,/ E,/!<(!C/A,/E,/ D/A,/F,/D/ | %2
 (G,/E/_B,/G,/!<)! G/E/B,/G/!>(! A,/F/D/A,/ E/B,/G,/E/!>)! | %3
!>(! E,/D/A,/E,/ ^C/A,/E,/C/ F,/!>)!D/A,/F,/ D/A,/F,/D/ | %4
!pp! F,/D/A,/F,/ D/A,/F,/D/ E,/^C/A,/E,/ E/A,/G,/E/ | %5
 F,/D/A,/F,/ D/A,/F,/D/ E,/^C/A,/E,/ E/C/A,/E/ | B,/G/E/B,/ G/E/B,/G/ A,/F/D/A,/ E/^C/G,/E/ | %7
!<(! F,/D/A,/F,/!<)!!>(! F/^C/G,/E/!>)! F,/D/A,/F,/ D/A,/F,/D/ | %8
 A,/F/D/A,/ F/D/A,/F/ G,/F/=B,/G,/ F/B,/G,/F/ | %9
 G,/F/_B,/G,/"_poco cresc." E/B,/G,/E/ A,/E/C/A,/ ^D/C/A,/D/) | %10
 (E,/E/A,/E,/"_dim." E/A,/E,/E/ E,/=D/A,/E,/ D/^G,/E,/D/ | %11
!pp! E,/C/A,/E,/!<(! E/A,/E,/D/!<)!!>(! E,/C/A,/E,/!>)! C/A,/E,/E/ | %12
[K:treble]!pp! _B,/E/^C/B,/ E/C/B,/E/ B,/E/C/B,/ E/C/B,/E/) | %13
 (A,/E/^C/A,/ E/C/A,/A/ A,/A/D/A,/ A/D/A,/A/ | %14
 =B,/G/D/B,/ G/"_crescendo"^C/A,/G/ A,/F/D/A,/ A/D/A,/A/ | %15
 A,/E/^C/A,/ E/D/^G,/E/ =G,/"_dim. molto"E/_B,/G,/ E/A,/G,/E/) | %16
!pp! (^F,/D/A,/F,/!<(! ^F/D/A,/F/ G,/^C/A,/G,/ G/C/A,/G/!<)! | %17
 ^F,/D/A,/F,/ ^F/D/A,/!p!F/ E,/D/=B,/E,/"_rall." E/D/B,/E/ | %18
"_colla voce" ^F,/D/A,/F,/ ^F/D/A,/F/ G,/^C/A,/G,/ C/B,/G,/C/) | %19
"^a tempo" (^F,/^F/D/A,/ A/F/"_crescendo"D/A/ D/^G/=F/D/ d/G/F/d/ | %20
 C/=G/F/C/ A/E/B,/G/"_dim. molto" A,/F/D/A,/ E/B,/G,/F/ | %21
[K:bass] E,/D/A,/E,/ ^C/A,/E,/C/ F,/D/A,/F,/ D/A,/F,/D/) | %22
!pp! (F,/D/A,/F,/ D/A,/F,/D/ E,/^C/A,/E,/ E/A,/G,/E/ | %23
 F,/D/A,/F,/ D/A,/F,/D/ E,/^C/A,/E,/ E/C/A,/E/ | B,/G/E/B,/ G/E/B,/G/ A,/F/D/A,/ E/^C/G,/E/ | %25
!<(! F,/D/A,/F,/!<)!!>(! F/^C/G,/E/!>)! F,/D/A,/F,/ D/A,/F,/D/ | %26
 A,/F/D/A,/ F/D/A,/F/ G,/F/=B,/G,/ F/B,/G,/F/ | %27
 G,/F/_B,/G,/ E/B,/G,/E/ A,/E/"_poco  cresc."C/A,/ ^D/C/A,/D/ | %28
 E,/!mp!E/A,/E,/"_dim." E/A,/E,/E/ E,/=D/A,/E,/ D/^G,/E,/D/ | %29
!pp!!<(! E,/C/A,/E,/!<)!!>(! E/A,/E,/D/!>)! E,/C/A,/E,/ C/A,/E,/E/ | %30
[K:treble]!pp! _B,/E/^C/B,/ E/C/B,/E/ B,/E/C/B,/ E/C/B,/E/ | %31
 A,/E/^C/A,/ E/C/A,/A/ A,/A/D/A,/ A/D/A,/A/ | %32
 =B,/G/D/B,/"_crescendo" G/^C/A,/G/ A,/F/D/A,/ A/D/A,/A/ | %33
 A,/E/^C/A,/ E/D/^G,/!f!E/"_dim. molto" =G,/E/_B,/G,/ E/A,/G,/E/) | %34
!pp! (F,/E/A,/F,/ D/A,/"_crescendo"F,/F/ B,/F/D/B,/ F/D/B,/F/ | %35
 G,/E/B,/G,/ E/A,/F,/E/"^colla voce" F,/D/A,/F,/ D/G,/E,/D/ | %36
"^rall." F,/D/A,/F,/ D/A,/F,/D/ G,/^C/A,/G,/ C/"_dim."A,/G,/C/ | %37
!pp!"^a tempo" F,/D/A,/F,/ A/"_crescendo"F/D/A/ D/_A/F/D/ d/A/F/d/ | %38
 F/c/G/F/ c/G/E/c/ F/c/"_dim."B/F/ c/B/G/c/) | %39
!pp! (3([CFAc][CFAc][CFAc] (3[CFAc][CFAc][CFAc] (3[CFAc][CFAc][CFAc] (3[CFAc][CFAc][CFAc] | %40
 (3[CFBc][CFBc][CFBc] (3[CFBc][CFBc][CFBc] (3[CFAc][CFAc][CFAc] (3[CFAc][CFAc][CFAc] | %41
 (3[DFBd][DFBd][DFBd] (3[DFBd][DFBd][DFBd] (3[DFBd][DFBd][DFBd] (3[DFBd][DFBd][DFBd]) | %42
 (c2 (3:2:2e2 d c2"^dim." (3:2:2=a2 g) | %43
!pp! (f2 (3[CFAc][CFAc][CFAc] (3[CFAc][CFAc][CFAc] (3[CFAc][CFAc][CFAc] | %44
 (3[CFBc][CFBc][CFBc] (3[CFBc][CFBc][CFBc] (3[CFAc][CFAc][CFAc] (3[^DAc^d][DAcd][DAcd] | %45
 (3[EA^ce][EAce][EAce] (3[Ace][Ace][Ace] (3[A=Bde][ABde][ABde] (3[^GBde][GBde][GBde] | %46
 (3[A^ce][Ace][Ace])!>(! (3:2:2([ce^c']2 [=Bd=b] [Aca]2)!>)! (3z"^dim. molto" [^CEA][CEA] | %47
!pp!"^Animez" (6:4:6([^CE]/_B/[CE]/B/[CE]/B/) (3([CE][CEB][CEB] (3[CEB][CEB][CEB] (3[CEB][CEB][CEB]) | %48
 (6:4:6([DF]/A/[DF]/A/[DF]/A/) (3([DF][DFA][DFA] (3[FA][DFA][DFA] (3[DFA][DFA][DFA] | %49
 (3[=B,D^GA][B,DGA][B,DGA]"_molto crescendo" (3[^C=GA][CGA][CGA] (3[DFA][DFA][DFA] (3[A,DFA][A,DFA][A,DFA] | %50
 (3[A,DE][A,DE][A,DE] (3[^G,DE][G,DE][G,DE]"_dim. molto" (3[=G,DE][G,=CE][_B,E] (3[A,E][I:staff +1]^G,=G, | %51
!ppp!"^tremolando"[I:staff -1] !///-![^fa]2) ^f'2 !///-![ga] g' !///-![ga] ^c' | %52
 !///-![^fa] e' !///-![fa] d' !///-!d e !///-![de] =b | %53
"_colla voce" !///-![d^f]2 a2 !///-![^cg]2 a2!pp! | %54
"^a tempo" ([d^f]/A,/D/^F/ A/f/d/A/ G/e/^c/G/ E/c/G/E/ | ^F/d/A/F/ A/^f/d/A/ G/e/^c/G/ E/c/G/E/ | %56
 ^F/d/A/F/ A/^f/d/A/ G/e/^c/G/ E/c/G/E/) | %57
 z/ (=B,/D/"_dim."^F/ ^G/=B/d/^f/ ^g/=b/d'/) !fermata!z/ z2 | ([^FA]4 [=GA]2 [GA]2 | %59
!ppp! [^FA]2) x6 |"_smorzando""^dim." z2 (A/d/^f/d/ G/^c/e/A/- [Aga]2) | %61
"_calando" z2 .[d^fa] z!ppp! z4 |] %62
V:3
 (D,8 | A,,4 G,,2 F,,2 | ^C,,4 D,,2 G,,2 | A,,2 A,,,2 D,,2-) D,, z | ([D,,A,,]8 | [A,,,A,,]8 | %6
 A,,8 | D,,4-) D,,2- D,, z | (D,8 | =C,4 [F,,C,]4 | [E,,C,]4 [E,,=B,,]4 | %11
 [A,,,A,,]2)[K:treble] (c>=B A2-) A z |[K:bass] ([=G,,=G,]8 | [F,,F,]8 | E,4 D,4 | %15
 A,,2 =B,,2 =C,2 ^C,2) | ([D,,A,,D,]4 [E,,^C,]4 | D,8 | A,,4 [A,,,A,,]4 | (D,4 D,2) F,2- | %20
 F,2 E,2 D,2 G,,2 | A,,2 A,,,2 D,,2-) D,, z | [D,,A,,]8 | [A,,,A,,]8 | A,,8 | A,,4- A,,2- A,, z | %26
 (D,8 | =C,4 [F,,C,]4 | [E,,C,]4 [E,,=B,,]4 | [A,,,A,,]2)[K:treble] (c>=B A2-) A z | %30
[K:bass] ([G,,G,]8 | [F,,F,]8) | E,4 D,4 | A,,2 =B,,2 =C,2 ^C,2 | D,8 | C,4 B,,4 | %36
 ([A,,,A,,]4 [A,,,A,,]4 | [D,,D,]2 [D,F,-A,]2 [=B,,F,-_A,]4 | [C,F,]2 [C,E,]2 [D,F,]2 [E,G,]2) | %39
 (3A,A,A, (3A,A,A, (3A,A,A, (3A,A,A, | (3G,G,G, (3G,G,G, (3F,F,F, (3F,F,F, | %41
 (3[F,B,][F,B,][F,B,] (3[F,B,][F,B,][F,B,] (3[F,B,][F,B,][F,B,] (3[F,B,][F,B,][F,B,] | %42
 (3A,A,A, (3[_A,=B,][A,B,][A,B,] (3[G,_B,C][G,B,C][G,B,C] (3[B,CE][B,CE][B,CE] | %43
 (3[A,CF][A,CF][A,CF] (3A,A,A, (3A,A,A, (3A,A,A, | (3G,G,G, (3G,G,G, (3F,F,F, (3A,A,A, | %45
"_crescendo molto" (3[A,^C][A,C][A,C] (3[A,C][A,C][A,C] (3[A,=B,D][A,B,D][A,B,D] (3[^G,B,D][G,B,D][G,B,D] | %46
!f!!ped! (3[A,,A,][E,A,^CE][E,A,CE] (3[E,^G,DE][E,G,DE][E,G,DE] (3[E,A,CE][E,A,CE][E,A,CE]!ped-up! (3[E,A,CE] z z | %47
 (3z .G,,._B,, (3.^C,.E,.G, .B, z"^ten." G,,2 | (3z .F,,.A,, (3.D,.F,.A, .D z (F,,2 | %49
 E,,2 _E,,2 D,,2 F,,2 | A,,2 =B,,2 =C,2 ^C,2 | %51
!ped! (3!arpeggio![D,,^F,])(A,,D, (3F,A,A,,)!ped-up!!ped! (3!>!E,,(A,,^C, (3G,A,A,,)!ped-up! | %52
!ped! (3!>!^F,,(A,,D, (3^F,A,A,,)!ped-up!"^rall."!ped! (3!>!G,,(=B,,D, (3E,=B,E,)!ped-up! | %53
!ped! (3!>!A,,,(A,,D, (3^F,A,A,,)!ped-up!!ped! (3!>!A,,,(A,,^C, (3G,A,A,,)!ped-up! | %54
!ped! (D,,/A,,/D,/^F,/ A,/^F/D/!ped-up!A,/!ped! G,/E/^C/G,/ E,/C/G,/E,/!ped-up! | %55
!ped! D,,/A,,/D,/^F,/ A,/^F/D/!ped-up!A,/!ped! G,/E/^C/G,/ E,/C/G,/E,/!ped-up! | %56
!ped! D,,/A,,/D,/^F,/ A,/^F/D/!ped-up!A,/!ped! G,/E/^C/G,/ E,/C/G,/E,/)!ped-up! | %57
!ped! (^G,,,/=B,,/D,/^F,/"_calando" ^G,/=B,/[I:staff -1]D/^F/ ^G/=B/d/)"^Adagio"[I:staff +1] !fermata!z/!ped-up! z2 | %58
!pp!!<(! (A,4!<)!!>(! A,2!>)! A,2 | %59
!ped! [D,,D,]/)(A,,/D,/^F,/ A,/D/^F/D/!ped-up!!ped! G,/^C/E/A,/ .E,).A,,!ped-up! | %60
!ped! (D,,/A,,/D,/^F,/ A,/D/^F/!ped-up!D/!ped! G,/^C/E/A,/) .E,.A,,!ped-up! | %61
!ped! (D,,/A,,/D,/^F,/ A,/[I:staff -1]D/^F/A/ d)[I:staff +1] z z2!ped-up! |] %62
V:4
 x8 | x8 | x8 | x8 | x8 | x8 | x8 | A,,4- A,,2- A,, x | x8 | x8 | x8 | x2[K:treble] x6 | %12
[K:bass] x8 | x8 | E,,2 A,,2 D,,2 F,,2 | x8 | x8 | ^F,,4 G,,4 | x8 | D,,2 =C,2 =B,,2 _B,,2 | %20
 C,2 ^C,2 D,2 G,,2 | x8 | x8 | x8 | x8 | D,,4- D,,2- D,, x | x8 | x8 | x8 | x2[K:treble] x6 | %30
[K:bass] x8 | x4 x2 x x/ x/ | E,,2 A,,2 D,,2 F,,2 | x8 | (D,,4 G,,4 | C,,2 F,,2 B,,,2 E,,2) | x8 | %37
 x8 | G,2 _B,4 B,2 | F,4 A,,4 | G,,2 C,2 F,,2- F,, z | B,,4 D,2 B,,2 | F,4 F,4 | F,4 A,,4 | %44
 G,,2 C,2 F,,2 F,2 | E,4 E,4 | x8 | x8 | x8 | x8 | x8 | x8 | x8 | x8 | x8 | x8 | x8 | x8 | %58
 A,2 ^F,2 E,2 A,,2 | x8 | x8 | x8 |] %62
V:5
 x8 | x8 | x8 | x8 | x8 | x8 | x8 | x8 | x8 | x8 | x8 | x8 |[K:treble] x8 | x8 | x8 | x8 | x8 | %17
 x8 | x8 | x8 | x8 |[K:bass] x8 | x8 | x8 | x8 | x8 | x8 | x8 | x8 | x8 |[K:treble] x8 | x8 | x8 | %33
 x8 | x8 | x8 | x8 | x8 | x8 | x8 | x8 | x8 | %42
 (3[CFA][CFA]"^cresc. molto"[CFA] (3[F_A=B][FAB][FAB] (3[EG_B][EGB][EGB] (3[Bce][Bce][Bce] | %43
 (3[Ac][Ac][Ac] x2 x4 | x8 | x8 | x8 | x8 | x8 | x8 | x8 | x8 | x8 | x8 | x8 | x8 | x8 | x8 | %58
 ^C2 D2 =B,2 E2 | D2 (A/d/^f/d/ G/^c/e/A/- [Aga]2) | x8 | x8 |] %62

